X: 76
T:Johnny McGoohan's
M:2/2
L:1/8
C:Ed Reavy
S:The Collected Compositions of Ed Reavy
R:Reel
N:Good musicians need good listeners, and two
N:of the best listeners where Johnny and his wife Katey. Johnny would
N:be waiting on his front porch hours before "the fellows" were
N:expected on an evening for a session of music; and no matter how
N:long they played, it was never too late for a few more tunes at
N:the McGoohans. Tea and skohn did not mean (as it usually does) that
N:the fiddling would stop. As Johnny would put it, "We'll have a bite
N:to eat and be back at it for a few more before the night is done."
N:And Katey would never disagree.
Z:Joseph Reavy
K:G
DF|G2 Bd gdBG|DGBd cAFA|G2 Bd gdBd|cBAG FADF|GABd gfaf|gedB A2 Bc|(3dcB
(3cBA BGAF|1 ACB,A, G,A,B,D:|2G2 Ac BGGA||B2 GA Bdef|gfga gedc|B2 GA B2
eB|
dBAG EGGA|B2 GA Bdef|gfe^c d2 ef|gbag fagf|1 e^cAF G2 GA:|2 e^cAF G2||

